resources/images/icons/social/whatsapp.svg

<?xml version="1.0" ?><svg height="72" viewBox="0 0 72 72" width="72" xmlns="http://www.w3.org/2000/svg"><g fill="none" fill-rule="evenodd"><path d="M36,72 L36,72 C55.882251,72 72,55.882251 72,36 L72,36 C72,16.117749 55.882251,-3.65231026e-15 36,0 L36,0 C16.117749,3.65231026e-15 -2.4348735e-15,16.117749 0,36 L0,36 C2.4348735e-15,55.882251 16.117749,72 36,72 Z" fill="#01E675"/><path d="M35.9930335,12 L35.9930335,12.0003982 L36.0069665,12.0003982 C49.2377485,12.0003982 60,22.7656853 60,36.0001991 C60,49.2343147 49.2377485,60 36.0069665,60 C31.1264337,60 26.598605,58.5469749 22.8044486,56.0355392 L13.5796047,58.9837983 L16.5700258,50.0669471 C13.6926611,46.116025 12,41.2484508 12,35.9998009 C12,22.7652871 22.7622515,12 35.9930335,12 Z M29.2928502,24.1908365 C28.8274878,23.0762798 28.4747837,23.0340708 27.7697737,23.0054006 C27.5297279,22.9914636 27.2622142,22.9775267 26.9656402,22.9775267 C26.0484504,22.9775267 25.0894615,23.245514 24.5110427,23.8380329 C23.8060327,24.557577 22.0568433,26.2363804 22.0568433,29.6792016 C22.0568433,33.1220228 24.5675709,36.4517558 24.9059439,36.9176476 C25.258648,37.3827431 29.8008078,44.5503098 36.8532971,47.4714915 C42.3683787,49.7571489 44.0049097,49.5453075 45.2600745,49.2773201 C47.093658,48.8823076 49.393002,47.5272392 49.9714208,45.891043 C50.5498395,44.2540504 50.5498395,42.8571713 50.3802549,42.5609119 C50.2110684,42.2646524 49.745308,42.0958164 49.0402979,41.7426147 C48.3352878,41.3898111 44.9073704,39.6966726 44.2584904,39.4708942 C43.6235435,39.2311789 43.0172587,39.3159951 42.5379633,39.9933302 C41.8608192,40.9386526 41.1980063,41.8983101 40.6617846,42.4764939 C40.2386193,42.9280506 39.5471441,42.9845947 38.9691235,42.7444812 C38.1932541,42.4203479 36.0212976,41.6577985 33.3409854,39.2733879 C31.2673561,37.4253503 29.8569379,35.125756 29.4481037,34.434484 C29.0388714,33.729275 29.4059066,33.3195291 29.7299485,32.9388517 C30.0826526,32.5012319 30.4210256,32.1910356 30.7737296,31.7816879 C31.1264337,31.3727384 31.3238843,31.1608969 31.549599,30.6810682 C31.7896448,30.2155745 31.6200602,29.7357458 31.4508737,29.3829422 C31.2816872,29.0301386 29.871269,25.5873174 29.2928502,24.1908365 Z" fill="#FFF"/></g></svg>

<svg height="72" width="72" xmlns="http://www.w3.org/2000/svg"><g fill="none" fill-rule="evenodd"><path d="M36 72c19.882 0 36-16.118 36-36S55.882 0 36 0 0 16.118 0 36s16.118 36 36 36z" fill="#01E675"/><path d="M35.993 12h.014C49.237 12 60 22.766 60 36S49.238 60 36.007 60a23.81 23.81 0 0 1-13.203-3.964l-9.224 2.948 2.99-8.917A23.824 23.824 0 0 1 12 36c0-13.235 10.762-24 23.993-24zm-6.7 12.19c-.466-1.114-.818-1.156-1.523-1.185a13.55 13.55 0 0 0-.804-.027c-.918 0-1.877.268-2.455.86-.705.72-2.454 2.398-2.454 5.841s2.51 6.773 2.849 7.239c.353.465 4.895 7.632 11.947 10.553 5.515 2.286 7.152 2.074 8.407 1.806 1.834-.395 4.133-1.75 4.711-3.386.579-1.637.579-3.034.41-3.33-.17-.296-.636-.465-1.34-.818-.706-.353-4.134-2.046-4.783-2.272-.634-.24-1.24-.155-1.72.522-.677.946-1.34 1.905-1.876 2.483-.423.452-1.115.509-1.693.268-.776-.324-2.948-1.086-5.628-3.47-2.074-1.849-3.484-4.148-3.893-4.84-.41-.705-.042-1.114.282-1.495.353-.438.691-.748 1.044-1.157.352-.41.55-.621.776-1.1.24-.466.07-.946-.1-1.3-.168-.352-1.579-3.795-2.157-5.191z" fill="#FFF"/></g></svg>
